X:230
T:score33
L:1/8
Q:1/4=96
M:4/4
I:linebreak $
K:Bmin
 (f4 Bcde | f3 d f3 d | f3 B dBGd | B4- B)(edc | f4 Bcde |$ f3 d f3 d | f3 B dBGd | B6) z2 |] %8
